X:1
T:Three Drops of Poison
M:3/4
L:1/4
K:G
G/2-B/2| d d B/2d/2| e c A| A G F| G2G/2-B/2| d dd/2-e/2| e c A| A G F|\
 G2 d| e e d|e/2-f/2 g f/2g/2| e/2e/2d/2-B/2 G| A/2- d3/2 d/2B/2| G B d|\
e/2-B/2 c3/2 A/2| G/2G/2 B A| G2||
